X:506
T:Reel 506
M:4/4
K:Dmaj
L:1/8
D>F (3FEF G>E (3EEE |C>C (3CB,C E>C (3EDC |A,>C (3CB,A, B,>C (3EDE |cBAG F>D (3GFE :|D>d (3dcd A>F (3FEF |E>C (3CB,C E>C (3CB,C |D>F (3FEF A>F (3FEF |E>A, (3A,B,A, E2C2|D>F (3FGF d>F (3FEF |B>C (3CB,A, G>C (3A,B,C |DFFF GEFE| (3CB,B,  (3EB,E C2CE|D>F (3ABc d2cd|BcAG FGFEFD|C>E (3A,B,A, EA,FECE|CB,A, (3B,A,E CE (3EBE |D>C (3CB,A, EA,CA,|CB,CE CE (3CDE |DA,CD ECDECDEC |D
